packages/ffe-icons/icons/open/400/sm/monitoring.svg

<svg xmlns="http://www.w3.org/2000/svg" height="20" viewBox="0 -960 960 960" width="20"><path d="M228.21-192q-15.21 0-25.71-10.35T192-228v-48q0-15.3 10.29-25.65Q212.58-312 227.79-312t25.71 10.35Q264-291.3 264-276v48q0 15.3-10.29 25.65Q243.42-192 228.21-192Zm126 0q-15.21 0-25.71-10.35T318-228v-192.15q0-14.85 10.29-25.35 10.29-10.5 25.5-10.5t25.71 10.35Q390-435.3 390-420v192.15q0 14.85-10.29 25.35-10.29 10.5-25.5 10.5Zm126 0q-15.21 0-25.71-10.35T444-228v-96q0-15.3 10.29-25.65Q464.58-360 479.79-360t25.71 10.35Q516-339.3 516-324v96q0 15.3-10.29 25.65Q495.42-192 480.21-192Zm126 0q-15.21 0-25.71-10.35T570-228v-168q0-15.3 10.29-25.65Q590.58-432 605.79-432t25.71 10.35Q642-411.3 642-396v168q0 15.3-10.29 25.65Q621.42-192 606.21-192Zm126 0q-15.21 0-25.71-10.35T696-228v-264q0-15.3 10.29-25.65Q716.58-528 731.79-528t25.71 10.35Q768-507.3 768-492v264q0 15.3-10.29 25.65Q747.42-192 732.21-192ZM527.94-456Q514-456 501-461q-13-5-24-16l-93-93-130 130q-11 11-26 11t-26.48-11Q191-451 191.5-465.5T203-491l130-130q10.68-10.96 23.6-15.98 12.91-5.02 27.15-5.02 14.25 0 27.25 5t24 16l93 93 178-178q11-11 26-11t26.48 11q10.52 11 10.02 25.5T757-655L579-477q-11 11-24.06 16-13.07 5-27 5Z"/></svg>

<svg xmlns="http://www.w3.org/2000/svg" height="20" viewBox="0 -960 960 960" width="20"><path d="M228.211-192Q213-192 202.5-202.35 192-212.7 192-228v-48q0-15.3 10.289-25.65 10.29-10.35 25.5-10.35Q243-312 253.5-301.65 264-291.3 264-276v48q0 15.3-10.289 25.65-10.29 10.35-25.5 10.35Zm126 0Q339-192 328.5-202.35 318-212.7 318-228v-192.152Q318-435 328.289-445.5q10.29-10.5 25.5-10.5Q369-456 379.5-445.65 390-435.3 390-420v192.152Q390-213 379.711-202.5q-10.29 10.5-25.5 10.5Zm126 0Q465-192 454.5-202.35 444-212.7 444-228v-96q0-15.3 10.289-25.65 10.29-10.35 25.5-10.35Q495-360 505.5-349.65 516-339.3 516-324v96q0 15.3-10.289 25.65-10.29 10.35-25.5 10.35Zm126 0Q591-192 580.5-202.35 570-212.7 570-228v-168q0-15.3 10.289-25.65 10.29-10.35 25.5-10.35Q621-432 631.5-421.65 642-411.3 642-396v168q0 15.3-10.289 25.65-10.29 10.35-25.5 10.35Zm126 0Q717-192 706.5-202.35 696-212.7 696-228v-264q0-15.3 10.289-25.65 10.29-10.35 25.5-10.35Q747-528 757.5-517.65 768-507.3 768-492v264q0 15.3-10.289 25.65-10.29 10.35-25.5 10.35ZM527.935-456Q514-456 501-461q-13-5-24-16l-93-93-130 130q-11 11-26 11t-26.478-11Q191-451 191.5-465.5T203-491l130-130q10.685-10.957 23.596-15.978Q369.507-642 383.753-642 398-642 411-637t24 16l93 93 178-178q11-11 26-11t26.478 11Q769-695 768.5-680.5T757-655L579-477q-11 11-24.065 16-13.064 5-27 5Z"/></svg>
